chili-off.svg

<svg fill="currentColor" viewBox="0 0 24 24"><path d="M15 8.28c.6.35 1 .99 1 1.72v2.8l-4.5-4.51L12 8l1.75 1zM12 6.5l1.75 1 1.52-.87c-.55-.97-1.36-1.69-2.3-1.98A2.996 2.996 0 0 0 10 2v2c.44 0 .8.29.94.69-.68.23-1.28.68-1.77 1.28l1.37 1.37zM2.39 1.73 1.11 3 8 9.9V11c0 9 8 11 8 11v-4.11l4.84 4.84 1.27-1.27z"/></svg>

<svg  viewBox="0 0 24 24" fill="currentColor"><path  d="M15 8.28C15.6 8.63 16 9.27 16 10V12.8L11.5 8.29L12 8L13.75 9L15 8.28M12 6.5L13.75 7.5L15.27 6.63C14.72 5.66 13.91 4.94 12.97 4.65C12.79 3.16 11.54 2 10 2V4C10.44 4 10.8 4.29 10.94 4.69C10.26 4.92 9.66 5.37 9.17 5.97L10.54 7.34L12 6.5M2.39 1.73L1.11 3L8 9.9C8 9.94 8 9.97 8 10V11C8 20 16 22 16 22V17.89L20.84 22.73L22.11 21.46L2.39 1.73Z"/></svg>
